X:1
T:Sun and Shield, 76.76.77
T:Horatio William Parker, 1895
T:Sun and Shield, 76.76.77
T:Public Domain
C:Horatio William Parker, 1895
Z:Public Domain
%%score ( 1 2 ) ( 3 4 )
L:1/8
M:4/4
K:D
V:1 treble 
V:2 treble 
V:3 bass 
V:4 bass 
V:1
 [DF]2 [EA]2 [Dd]2 [DA]2 | [EA]3 [EG] [DF]4 | [DA]2 (BA) [CG]2 [DF]2 | [DF]4 [CE]4 | %4
 [DF]2 [EA]2 [Fd]2 [Fd]2 | (EF)(cB) A4 | [DA]2 D2 [CG]2 [DF]2 | (D2 C2) D4 | %8
 [DF]2 [DG]2 [FA]2 [FB]2 | [FA]3 G G4 | [DB]2 [Dd]2 [Dd]2 [DF]2 | D2 z A D4 x |] %12
V:2
 x8 | x8 | x2 D2 x4 | x8 | x8 | d2 ^G2 A4 | x2 D2 x4 | E4 D4 | x8 | x3 G G4 | x8 | A3 (C2 D4) |] %12
V:3
 [D,A,]2 [C,A,]2 [B,,F,]2 [F,,A,]2 | [G,,B,]2 [A,,C]2 [D,A,]4 | [F,A,]2 (G,F,) [E,A,]2 [D,A,]2 | %3
 [A,,A,]2 [^G,,B,]2 [A,,C]4 | [D,A,]2 [C,A,]2 [B,,A,]2 (B,A,) | [E,^G,]2 (ED) (A,2 =G,2) | %6
 [F,A,]2 ([G,B,][F,A,]) [E,A,]2 [D,A,]2 | [A,,G,]4 [D,F,]4 | [D,A,]2 [D,B,]2 [D,=C]2 [D,D]2 | %9
 [G,,=C]3 [G,,B,] [G,,B,]4 | [G,,E,]2 [^G,,E,]2 [A,,F,]2 [A,,A,]2 | [A,,G,]2 [A,,G,]2 [D,F,]4 x |] %12
V:4
 x8 | x8 | x2 G,2 x4 | x8 | x6 B,,2 | x2 E,2 C4 | x8 | x8 | x8 | x8 | x8 | x9 |] %12

